src/Assets/icon/icon_squareAdd.svg

<svg fill="none" height="24" viewBox="0 0 24 24" width="24" xmlns="http://www.w3.org/2000/svg"><path d="m16 2h-8c-3.309 0-6 2.691-6 6v13c0 .2652.10536.5196.29289.7071.18754.1875.44189.2929.70711.2929h13c3.309 0 6-2.691 6-6v-8c0-3.309-2.691-6-6-6zm1 11h-4v4h-2v-4h-4v-2h4v-4h2v4h4z" fill="#fff"/></svg>

<svg width="24" height="24" viewBox="0 0 24 24" fill="none" xmlns="http://www.w3.org/2000/svg">
<path d="M16 2H8C4.691 2 2 4.691 2 8V21C2 21.2652 2.10536 21.5196 2.29289 21.7071C2.48043 21.8946 2.73478 22 3 22H16C19.309 22 22 19.309 22 16V8C22 4.691 19.309 2 16 2ZM17 13H13V17H11V13H7V11H11V7H13V11H17V13Z" fill="white"/>
</svg>
